images/decorative/intro/pin.svg

<svg width="512" height="512" fill="none" xmlns="http://www.w3.org/2000/svg"><path fill-rule="evenodd" clip-rule="evenodd" d="M118.874 63.847C145.165 32.392 191.428 0 255.204 0c30.786 0 54.019 8.041 54.253 8.122l.113-.05c44.017 14.194 81.693 43.988 104.482 87.925l-.034.04c.401.686 20.125 34.664 20.125 83.436 0 52.674-20.413 90.39-20.413 90.39-14.232 29.421-43.355 65.581-54.991 80.028l-.001.002c-1.943 2.412-3.398 4.219-4.215 5.288-21.078 26.392-42.528 53.851-59.79 84.753-8.798 16.005-14.374 32.946-21.481 55.141-3.422 10.196-7.851 16.789-17.615 16.789-8.958 0-13.126-3.875-17.736-16.86-7.519-23.503-11.807-36.73-22.094-56.237a517.165 517.165 0 0 0-40.334-59.489l.011-.064c-6.719-9.069-14.3-18.478-22.164-28.239-21.338-26.486-44.763-55.562-58.725-87.453 0 0-17.595-34.455-17.595-84.372 0-47.178 18.34-88.417 41.874-115.303Zm84.109 70.779.04.034-.354.421c-2.3 2.811-15.328 19.785-15.328 43.536 0 37.988 30.479 68.115 68.206 68.115 25.896 0 42.908-14.275 49.483-20.996l3.06-3.484 1.26-1.577c3.685-4.912 14.453-21.102 14.453-42.561 0-38.874-32.734-67.914-68.095-67.914-33.439 0-52.644 24.379-52.644 24.379v-.049l-.081.096Z" fill="#F14336"/></svg>

<svg width="512" height="512" viewBox="0 0 512 512" fill="none" xmlns="http://www.w3.org/2000/svg">
<path fill-rule="evenodd" clip-rule="evenodd" d="M118.874 63.8471C145.165 32.3916 191.428 0 255.204 0C285.99 0 309.223 8.04104 309.457 8.12245L309.57 8.07275C353.587 22.2655 391.263 52.0601 414.052 95.9972L414.018 96.0379C414.419 96.7231 434.143 130.701 434.143 179.473C434.143 232.147 413.73 269.863 413.73 269.863C399.498 299.284 370.375 335.444 358.739 349.891L358.738 349.893C356.795 352.305 355.34 354.112 354.523 355.181C333.445 381.573 311.995 409.032 294.733 439.934C285.935 455.939 280.359 472.88 273.252 495.075C269.83 505.271 265.401 511.864 255.637 511.864C246.679 511.864 242.511 507.989 237.901 495.004C230.382 471.501 226.094 458.274 215.807 438.767C203.758 418.026 190.281 398.148 175.473 379.278L175.484 379.214C168.765 370.145 161.184 360.736 153.32 350.975C131.982 324.489 108.557 295.413 94.595 263.522C94.595 263.522 77 229.067 77 179.15C77 131.972 95.3398 90.7328 118.874 63.8471ZM202.983 134.626L203.023 134.66L202.669 135.081C200.369 137.892 187.341 154.866 187.341 178.617C187.341 216.605 217.82 246.732 255.547 246.732C281.443 246.732 298.455 232.457 305.03 225.736L308.09 222.252L309.35 220.675C313.035 215.763 323.803 199.573 323.803 178.114C323.803 139.24 291.069 110.2 255.708 110.2C222.269 110.2 203.064 134.579 203.064 134.579V134.53L202.983 134.626Z" fill="#F14336"/>
</svg>
